assets/Person facepalming/Light/Flat/person_facepalming_flat_light.svg

<svg width="32" height="32" viewBox="0 0 32 32" fill="none" xmlns="http://www.w3.org/2000/svg">
<path d="M6 29.6161C6 24.311 10.4745 20.0098 16 20C18.2518 20 20.329 20.716 22 21.9234L19.2386 30H6V29.6161Z" fill="#FF6723"/>
<path d="M15.5 24.5C14.1174 24.5 13 23.306 13 21.8286V18.6714C13 17.194 14.1174 16 15.5 16C16.8826 16 18 17.194 18 18.6714V21.8286C18 23.306 16.8826 24.5 15.5 24.5Z" fill="#F4C6AD"/>
<path d="M23.8385 6.11033C23.4578 5.46185 22.8768 5.00293 22.2156 4.78345C21.4944 4.54401 20.8733 4.07512 20.4826 3.42664C19.9617 2.56866 19.01 2 17.9281 2C17.5173 2 17.1166 2.07981 16.756 2.23944C16.2651 2.44894 15.7141 2.44894 15.2233 2.23944C14.8726 2.07981 14.4719 2 14.0612 2C12.9993 2 12.0577 2.55869 11.5367 3.38674C11.126 4.04519 10.4949 4.53404 9.76359 4.78345C9.07237 5.02289 8.46129 5.51174 8.09063 6.20012C7.54967 7.20775 7.65987 8.39495 8.27095 9.29284C8.50136 9.62206 8.62157 10.0012 8.62157 10.4002V15.608C8.62157 16.7112 9.29522 17.7056 10.3128 18.1245L21.7398 18.0886C22.7106 17.6507 23.3477 16.6808 23.3477 15.608V10.4002C23.3477 10.0112 23.4679 9.62207 23.6983 9.30282C24.3494 8.38498 24.4396 7.14789 23.8385 6.11033Z" fill="#212121"/>
<path d="M11.92 12.76C11.92 13.9143 10.9843 14.85 9.82999 14.85C8.67571 14.85 7.73999 13.9143 7.73999 12.76C7.73999 11.6058 8.67571 10.67 9.82999 10.67C10.9843 10.67 11.92 11.6058 11.92 12.76Z" fill="#F4C6AD"/>
<path d="M24.2 12.76C24.2 13.9143 23.2643 14.85 22.11 14.85C20.9557 14.85 20.02 13.9143 20.02 12.76C20.02 11.6058 20.9557 10.67 22.11 10.67C23.2643 10.67 24.2 11.6058 24.2 12.76Z" fill="#F4C6AD"/>
<path d="M13.7064 5.42993H15.4674C15.7622 5.47517 16.013 5.67183 16.1265 5.95998C16.6265 7.06998 17.7365 7.77998 18.9565 7.77998H20.6748C21.7109 7.78465 22.5463 8.64279 22.5164 9.67997L22.4864 10.76H22.5076L22.14 16.69C21.81 19.16 19.71 21 17.22 21H14.82C12.33 21 10.22 19.16 9.89999 16.69L9.43854 9.562C9.51124 7.26595 11.3925 5.42993 13.7064 5.42993Z" fill="#FFD7C2"/>
<path d="M17.7668 17.9215C17.3454 17.2146 16.6216 16.74 15.797 16.74C14.9724 16.74 14.2486 17.2146 13.8272 17.9215C13.7355 18.073 13.8638 18.2547 14.0104 18.2345H17.5744C17.721 18.2749 17.8584 18.0831 17.7668 17.9215Z" fill="#990838"/>
<path d="M15.0073 12.117C15.1637 12.2315 15.1976 12.451 15.0831 12.6074C14.6819 13.1552 14.0316 13.5009 13.3 13.5009C12.5769 13.5009 11.9296 13.1538 11.5201 12.6115C11.4033 12.4569 11.434 12.2369 11.5886 12.1201C11.7432 12.0033 11.9632 12.034 12.08 12.1886C12.3627 12.563 12.8063 12.7992 13.3 12.7992C13.8062 12.7992 14.2469 12.5616 14.517 12.1928C14.6315 12.0364 14.851 12.0025 15.0073 12.117Z" fill="#212121"/>
<path d="M20.1812 10.3614C20.2413 10.4222 20.3214 10.4465 20.3915 10.4465C20.4916 10.4465 20.6017 10.3979 20.6718 10.2763C20.792 10.0939 20.7619 9.82632 20.6118 9.68039C20.5717 9.64391 19.6205 8.78048 18.2188 8.97505C18.0185 9.01154 17.8883 9.21827 17.9084 9.44933C17.9284 9.68039 18.0986 9.85064 18.2989 9.82632C19.4103 9.66823 20.1712 10.3492 20.1812 10.3614Z" fill="#212121"/>
<path d="M11.3201 10.2763C11.3902 10.3857 11.4903 10.4466 11.6004 10.4466C11.6705 10.4466 11.7506 10.4222 11.8107 10.3614C11.8115 10.3614 11.8173 10.3569 11.8277 10.3487C11.9471 10.2552 12.6804 9.68099 13.6931 9.82635C13.8933 9.85067 14.0535 9.69257 14.0835 9.44936C14.1036 9.2183 13.9634 9.01156 13.7732 8.98724C12.379 8.78162 11.4305 9.64666 11.3809 9.69191C11.2307 9.82568 11.1999 10.0939 11.3201 10.2763Z" fill="#212121"/>
<path d="M23.179 17.894C23.2503 17.1335 23.4133 16.3832 23.6885 15.6735C24.096 14.6393 24.5342 13.8485 24.5342 13.8383C24.7991 13.3719 24.6259 12.7737 24.1572 12.5101C23.6885 12.2465 23.0873 12.4189 22.8224 12.8853C22.802 12.9258 22.5371 13.4023 22.2212 14.1019C22.1804 14.2033 22.0378 14.1932 22.0072 14.0918C21.5283 12.6318 21.2634 10.7966 21.2022 10.0362C21.1615 9.5495 20.7233 9.18449 20.2342 9.23519C19.7452 9.27574 19.3783 9.71172 19.4293 10.1984C19.4293 10.239 19.521 11.2224 19.7553 12.4391C19.7859 12.5811 19.8063 12.7129 19.8369 12.8447C19.8471 12.8853 19.8165 12.9258 19.7757 12.9258C19.7452 12.9258 19.7146 12.9055 19.7044 12.8751C19.2153 11.2123 18.9911 9.7827 18.9911 9.75228C18.9198 9.2656 18.4613 8.93101 17.9722 9.01213C17.4831 9.0831 17.1469 9.53936 17.2284 10.026C17.2386 10.097 17.5341 11.5773 17.8907 12.9765C17.9009 13.0069 17.8499 13.0272 17.8397 12.9968L17.0246 10.9487C16.8208 10.5026 16.3011 10.2896 15.8528 10.4722C15.3943 10.6648 15.1905 11.2123 15.3841 11.6686L16.3521 13.8992C16.3827 13.96 16.291 14.0107 16.2502 13.9499C15.914 13.3111 15.6796 12.865 15.6796 12.865C15.4554 12.429 14.9154 12.2668 14.4772 12.4898C14.0391 12.7129 13.8761 13.2503 14.1002 13.6862C15.109 15.6025 16.7495 18.7254 16.9533 19.1411C16.9635 19.1613 16.9736 19.1715 16.9838 19.1816C17.3303 19.8204 17.8907 20.3476 18.6141 20.6416C20.2852 21.3412 22.2212 20.5605 22.9344 18.8977C23.0669 18.5631 23.1484 18.2285 23.179 17.894Z" fill="#F1B99B"/>
<path d="M23.342 21.2093L18.4511 22.5173L18.1352 21.3513C18.0639 21.0978 18.2167 20.8443 18.4715 20.7733L22.4453 19.7189C22.7001 19.6479 22.9548 19.8 23.0261 20.0535L23.342 21.2093Z" fill="#F95725"/>
<path d="M19.1949 29.9999H27L24.6259 21.1688C24.5138 20.7429 24.0654 20.4895 23.6375 20.601L17.9212 22.1219C17.4933 22.2334 17.2386 22.6795 17.3506 23.1053L19.1949 29.9999Z" fill="#FF8101"/>
</svg>

<svg xmlns="http://www.w3.org/2000/svg" width="32" height="32" fill="none"><path fill="#FF6723" d="M6 29.616C6 24.311 10.475 20.01 16 20c2.252 0 4.329.716 6 1.923L19.239 30H6v-.384Z"/><path fill="#F4C6AD" d="M15.5 24.5c-1.383 0-2.5-1.194-2.5-2.671V18.67C13 17.194 14.117 16 15.5 16s2.5 1.194 2.5 2.671v3.158c0 1.477-1.117 2.671-2.5 2.671Z"/><path fill="#212121" d="M23.838 6.11a2.969 2.969 0 0 0-1.622-1.327 3.17 3.17 0 0 1-1.733-1.356A2.981 2.981 0 0 0 17.928 2c-.41 0-.811.08-1.172.24-.49.209-1.042.209-1.533 0-.35-.16-.751-.24-1.162-.24a2.988 2.988 0 0 0-2.524 1.387 3.365 3.365 0 0 1-1.773 1.396A3.016 3.016 0 0 0 8.09 6.2a2.983 2.983 0 0 0 .18 3.093c.23.33.35.708.35 1.107v5.208c0 1.103.674 2.098 1.692 2.517l11.427-.036a2.729 2.729 0 0 0 1.608-2.481V10.4c0-.389.12-.778.35-1.097a2.945 2.945 0 0 0 .14-3.193Z"/><path fill="#F4C6AD" d="M11.92 12.76a2.09 2.09 0 1 1-4.18 0 2.09 2.09 0 0 1 4.18 0ZM24.2 12.76a2.09 2.09 0 1 1-4.18 0 2.09 2.09 0 0 1 4.18 0Z"/><path fill="#FFD7C2" d="M13.706 5.43h1.761a.844.844 0 0 1 .66.53 3.1 3.1 0 0 0 2.83 1.82h1.718a1.85 1.85 0 0 1 1.841 1.9l-.03 1.08h.022l-.368 5.93A4.961 4.961 0 0 1 17.22 21h-2.4c-2.49 0-4.6-1.84-4.92-4.31l-.461-7.128a4.268 4.268 0 0 1 4.267-4.132Z"/><path fill="#990838" d="M17.767 17.922c-.422-.707-1.145-1.182-1.97-1.182s-1.548.475-1.97 1.182c-.091.151.037.333.183.313h3.564c.147.04.284-.152.193-.313Z"/><path fill="#212121" d="M15.007 12.117a.35.35 0 0 1 .076.49 2.198 2.198 0 0 1-1.783.894c-.723 0-1.37-.347-1.78-.89a.35.35 0 1 1 .56-.422c.283.374.726.61 1.22.61.506 0 .947-.237 1.217-.606a.35.35 0 0 1 .49-.076ZM20.181 10.361c.06.061.14.085.21.085.1 0 .21-.048.28-.17a.49.49 0 0 0-.06-.596c-.04-.036-.99-.9-2.392-.705-.2.037-.33.243-.31.474.02.231.19.402.39.377a2.448 2.448 0 0 1 1.882.535ZM11.32 10.276c.07.11.17.17.28.17.07 0 .15-.024.21-.085.002 0 .007-.004.018-.012.12-.094.852-.668 1.865-.523.2.025.36-.133.39-.377.02-.23-.12-.437-.31-.462-1.394-.205-2.342.66-2.392.705-.15.134-.181.402-.06.584Z"/><path fill="#F1B99B" d="M23.179 17.894c.071-.76.234-1.51.51-2.22.407-1.035.845-1.825.845-1.836a.978.978 0 0 0-.377-1.328.988.988 0 0 0-1.335.375c-.02.04-.285.517-.6 1.217-.042.101-.184.091-.215-.01-.479-1.46-.744-3.295-.805-4.056a.883.883 0 0 0-.968-.8.881.881 0 0 0-.805.962c0 .041.092 1.024.326 2.241.03.142.051.274.082.406.01.04-.02.08-.061.08a.077.077 0 0 1-.072-.05 25.428 25.428 0 0 1-.713-3.123.882.882 0 0 0-1.019-.74.879.879 0 0 0-.744 1.014c.01.071.306 1.551.663 2.95.01.03-.041.051-.051.02l-.815-2.047a.917.917 0 0 0-1.172-.477c-.459.193-.662.74-.469 1.197l.968 2.23c.03.061-.061.112-.102.05l-.57-1.084a.893.893 0 0 0-1.203-.375.885.885 0 0 0-.377 1.196c1.009 1.916 2.65 5.04 2.853 5.455.01.02.02.03.03.04a3.235 3.235 0 0 0 1.631 1.46 3.316 3.316 0 0 0 4.32-1.743c.133-.335.214-.67.245-1.004Z"/><path fill="#F95725" d="m23.342 21.21-4.89 1.307-.317-1.166a.469.469 0 0 1 .336-.578l3.974-1.054a.472.472 0 0 1 .581.334l.316 1.156Z"/><path fill="#FF8101" d="M19.195 30H27l-2.374-8.831a.812.812 0 0 0-.989-.568l-5.716 1.52a.807.807 0 0 0-.57.984L19.195 30Z"/></svg>
